X:1
T:Questa invitta
T:Questa invitta
T:Ludovico Bellanda Veronese
T:Source : Musischi di L.Bellanda---Venetia---G.Vincenti---1607. Editor : André Vierendeels (04/07/15).
T:Notes : Original clefs : C4, F4 Editorial accidentals above the staff, in BC notated ( ). Figures in BC are notated in original print 3/4 notated in 3/2 in original print Lyrics by Cavalier  J.B.Guarini
C:Ludovico Bellanda Veronese
%%score 1 2
L:1/8
Q:1/4=80
M:4/4
K:C
V:1 treble-8 nm="Tenor" snm="T"
V:2 bass nm="BC" snm="BC"
V:1
 G6 G2 | G2 GA B3 A | B4 z2 d2 | cccB dddc | e4 eAAG | B4- BdBc | dG A2 GdBc | d2 d/c/B/A/ A4 | %8
w: Que- sta'in-|vit- ta gue- rie- *|ra spie-|ga- to'ha- vea d'A- mor l'al- te- r'in-|se- gna nel suo bel|vi- * s'ov' e- gli|vin- c'è re- gna, ov' e- gli|vin- c'è _ _ _ re-|
 G8 | c4 c2 C2 | G3 G G2 A2 | B2 G/A/B/c/ d4 | d4 z4 | z2 G2 EC c2 | AF D/E/F/G/ A/B/^c/d/ e2 | %15
w: gna,|quan- do con|l'ar- mi di- bel-|ta m'as _ _ _ sal-|se,|ne scher- mo, ne|scher- m'o fu- * * * * * * * *|
 e2 z2 z2 A2- | A2 A2 A2 Bc | d4 z4 |[M:3/4] d6 | B6 | G6 | c6 | B6 | G6 | A6 | A6 | B6 | d6 | c6 | %29
w: ga, val|_ se con- tra di|lei,|che|vin-|ci-|tri-|ce'in|tan-|to|mos-|se|la|ce-|
 e6 | d/c/B/A/ B/G/A/B/ c/B/A/G/ | ^F4 F/G/A/F/ |[M:4/4] G8 | C2 CC c2 G2 | z cAF C4 | z GEC G4 | %36
w: tra'e'l|can- * * * * * * * * * * *||to,|qua- si sue trom- be|e fe so- nar,|e fe so- nar,|
 z GGG BG d2 | BG d2 Bd ^c2 | d2 z A A4 | A8 |: z2 d2 d2 e2 | c4 B4 | z2 A2 A2 B2 | G2 A2 A4 | %44
w: e fe so- nar- vit- to-|ria, vit- to- ria, vit- to-|ria, vit- to-|ria,|co- si sui|vin- to,|e l'es- ser|vin- to'e glo-|
 G8 :| %45
w: ria.|
V:2
 C,8 | C,4 G,,4 |"^5" G,,4 B,,4 | A,,4 G,,4 | C,6 F,,2 | G,,4 G,4 | G,2 ^F,2 G,4 | ^F,2 G,2 D,4 | %8
 G,,4 G,4 | C,8 |"^#6" B,,4 C,2 A,,2 |"^#" G,,2 G,2 D,4 | D,2 D,2 B,,G,, G,2 | E,C, B,,2 C,2 A,,2 | %14
 D,4 A,,4 |"^#""^#" A,,4 D,4 | ^C,4 D,2 G,2- | G,2 ^F,E, F,D, E,F, |[M:3/4]"^(#)" G,3 D, E,F, | %19
 G,A, G,G,, A,,B,, | C,3 B,, C,D, |"^(#)" E,D, C,D, E,F, |"^(-natural)" G,2 G,,2 G,F, | E,D, E,4 | %24
 D,3 A,, B,,C, | D,E, ^F,D, E,F, |"^(-natural)" G,2 F,E, D,C, | B,,A,, G,,A,, B,,G,, | %28
 C,3 G,, A,,B,, | C,B,, C,D, E,F, | G,4 C,2- |"^#" C,2 D,4 |[M:4/4] G,,8 | C,6 C,2 | %34
 A,,2 F,,2 C,C, A,,F,, | C,4 z G, E,C, | G,,4 G,,4 | G,,4 G,,2 A,,2 |"^#" B,,2 C,2 A,,4 | %39
"^#" D,8 |: G,,4 G,,4 | A,,4 G,,4 | D,4 D,4 | E,2 C,2 D,4 | G,,8 :| %45

